X: 40456
T: Tom Sullivan's
R: polka
M: 2/4
K: Dmajor
|:D|E/F/G AB|=c2 AG|Ad dc|d2 de|
fd ed|cA AB|c/B/A GE|1 D3:|2 D2||
|:de|fd ed|cA Ae|fa/f/ ec|d2 de|
fd ed|cA AB|c/B/A GE|D2:|

